!!!OTL: Louisiana Lowlands
!!!ONM: 129.
**kern
*clefG2
*k[]
*C:
*M2/4
*MM64
{4g
=1
8.cc
16cc
8.cc
16e
=2
8.f
16g
8.a
16d
=3
8.e
16d
8.c
16B
=4
4.c}
{8e
=5
8.f
16e
8.f
16e
=6
8.a
16cc
8.dd
16a
=7
8.b
16g
8.a
16g
=8
4.g}
{8g
=9
8.a
16g
8.a
16g
=10
16cc
8.cc
8r
8g
=11
8.a
16g
8.a
16b
=12
4.cc}
{8g
=13
8.a
16g
8.a
32g
32g
=14
8.cc
16cc
8.cc
32e
32e
=15
8.g
16e
8.cc
16e
=16
4g}
=||
{8.e
16f
=17
16g
8g
16g
8.g
16a
=18
4g
4e
=19
2ee
=20
4cc}
{8.g
16g
=21
8.a
16a
8.dd
16dd
=22
4cc
4b
=23
4cc}
{8.e
16e
=24
8.g
16g
8.a
16a
=25
4g
4e
=26
2ee
=27
4cc}
{8.g
16g
=28
8.a
16a
8.dd
16dd
=29
4cc
4b
2cc}
==
*-
!!!CNT: Folksongs of Maritime Canada
!!!MRD: 1928///-1932///
!!!OCL: Helen Creighton
!!!YOR: Songs and Ballads from Nova Scotia
!!!PPR: J.M. Dent & Sons, Limited
!!!PPP: Toronto, Canada
!!!PDT: 1932///
!!!reprint: Dover Publications, 1992: ISBN 0-486-21703-5
!!!ENC1: Craig Stuart Sapp (music and bibliographic data)                       
!!!ENC2: Marcus Pearce (phrase markings and key designations)                   
!!!ENC3: Darrell Conklin (phrase markings and key designations)   
!!!END: 2002/04/10/
!!!EEV: 2004/06/05
!!!MPN: Prof. A. McMechan
!!!PPG: 278
!!!EFL: 131/152
!!!ARE: Canada; Nova Scotia
!!!verses: 3
!!!VTS: 3955589173
